assets/img/i-logistics.svg

<svg xmlns="http://www.w3.org/2000/svg" viewBox="0 114 612 526" enable-background="new 0 114 612 526"><g stroke="#FDD900" stroke-width="2" stroke-miterlimit="10" fill="none"><path d="M358.9 551.6h2.4l-2-1.2m-3.8-2.3l-11.1-6.9-76.1-13.5c-14.4-3-16.8-13.7-17.1-20.7m-.2-2v-2.3h-.2v-2.3m.1-4.4v-192.5m0-2.2v-2.3h-2.3m-3.9 0h-13.3m-2 0h-2.2v2.3m0 4.3v138.4m0 2.3v2.3l-.2-2.3m-.3-4.5l-7.5-110.5c-.2-9.3-7.4-16.8-16.4-16.8h-127.3c-8.9 0-16.2 7.5-16.4 16.8l-7.1 104.5m0 2.1l-.3 2.2h-2.3m-4.5 0h-15c-3.3 0-6 4.2-6 9.5 0 0-.2 119.7-.2 122.1 0 27.3 22.2 49.7 49.7 49.7 24.8 0 45.3-18.3 49.1-42m.2-2.2c.2-.8.2-1.5.2-2.3h2.3m4.2.1h40.6m2.1 0h2.3l.2 2.3m.6 4.4c4.7 22.7 24.6 39.8 48.6 39.8 27.3 0 49.7-22.2 49.7-49.7 0-5.6-.9-11-2.7-16.1m-.7-2c-.3-.8-.6-1.4-.9-2.1h2.3m4.6 0h80.5M90.7 575c-1.5 8.3-8.7 14.6-17.4 14.6-8.9 0-16.2-6.6-17.6-15.2-.2-.9-.2-1.7-.2-2.6v-1.1c.3-4.2 2-8 4.7-11 3.3-3.5 7.8-5.7 12.9-5.7 5.1 0 9.8 2.3 12.9 5.7 2.7 2.9 4.4 6.8 4.7 11v1.1c.3 1.1.1 2.1 0 3.2zm-21.6-134.9h-2.3l.3-2.2m.3-4.5l6.9-101.4v-.5c0-1.2.8-2 1.2-2h127.3c.5 0 1.2.8 1.2 2v.3l8.4 122.8m.2 2.2l.2 2.3-1.8-1.5m-3.5-2.9l-12.2-10.2m-1.8-1.5l-1.6-1.4 1.3-1.8m2.9-3.3l5.9-7.1c2.3-2.7 2-6.9-.8-9.2-2.7-2.3-6.9-2-9.2.8l-26.1 31.1c-2.3 2.7-2 6.8.8 9.2 2.7 2.3 6.9 2 9.2-.8l7.4-8.7m1.2-1.4l1.5-1.8 1.7 1.5m3.7 3l13 10.8m1.8 1.5l1.8 1.5h-2.3m-4.7 0h-57.6l-57.5-26.8h-14.4"/><path d="M223.9 589.5c-8.7 0-15.9-6.3-17.4-14.6-.2-1.1-.3-2.1-.3-3.2v-1.1c.3-4.2 2-8 4.7-11 2.3-2.4 5.1-4.2 8.3-5.1 1.5-.5 3-.6 4.7-.6 1.4 0 2.6.2 3.8.5 2.6.6 5 1.7 6.9 3.2 1.5 1.2 2.9 2.6 3.9 4.1 1.8 2.6 2.9 5.6 3 8.9v1.2c.1 9.8-7.9 17.7-17.6 17.7z"/></g><path fill="#00FFCE" d="M524.5 223.3c-8.4-.6-17.6-1.1-26.6-1.1-33.6 0-55 6.2-63.4 18.2-8.4-12-29.7-18.2-63.4-18.2-9 0-18.2.5-26.6 1.1h-1.2c-.6.2-1.4.2-2.1.2h-.3c-.8.2-1.5.2-2.3.2h-.8c-.5.2-.9.2-1.4.2-.5.2-1.1.2-1.7.2-17.1 1.7-29.6 3.9-29.7 3.9l-1.1.2-3 3.8h-22.7v199l3.2-.2c.5 0 51.7-3.3 71.8-5.4l.9-.2c20.3-2.3 45.5-5.1 56.3 3.8l.8.6h45.8l.8-.6c11-8.9 37.7-5.9 57.1-3.6h.2c20.1 2.3 71.3 5.4 71.8 5.4l3.2.2v-199h-22.7l-3-3.8-1.1-.2c-.2 0-12.6-2.3-29.7-3.9m-237.4 23.7l7.4-9.2v154.8l-7.4 12.3v-157.9zm130.2 164.1c-1.8-.6-21.6-7.1-49.8-7.1-9.2 0-18.3.8-27.2 2.1-29 4.5-44.3 5.4-51.5 5.6l9.2-15.3c.2 0 15.9-6.9 68.2-7.1 33.6-.2 47.9 13.7 53.6 22.5l-2.5-.7zm5.3-3.6c-7.1-9.8-22.7-23-56.2-23h-.3c-40.7.2-59.8 4.2-66.8 6.3v-158.1c7.4-1.2 35.3-5.4 62.9-5.4 34.7 0 55.6 6.6 60.4 19.2v161zm5.8-161.1c4.8-12.5 25.7-19.2 60.4-19.2 27.6 0 55.6 4.2 62.9 5.4v158.1c-7.2-2.1-26.3-6-66.5-6.3h-1.1c-33.9 0-49.1 12.8-55.7 22.5v-160.5zm82.5 159.8c-8.9-1.4-18-2.1-27.2-2.1-28.2 0-48 6.5-49.8 7.1l-2.6.8c5.3-8.9 19.1-22.8 54.1-22.5 48.2.3 65.5 6.2 67.9 7.1l9.2 15.3c-7.3-.3-22.7-1.2-51.6-5.7zm53-1.2l-7.4-12.3v-154.9l7.4 9.2v158zm-151.5-143.1c-24.2-19.8-99.7-6.5-100.6-6.3l-.8-4.8c3.2-.6 78.2-13.8 104.1 7.2l-2.7 3.9zm0 10.5c-24.2-19.8-99.7-6.5-100.6-6.3l-.8-4.8c3.2-.6 78.2-13.8 104.1 7.2l-2.7 3.9zm0 10.6c-24.2-19.8-99.7-6.5-100.6-6.3l-.8-4.8c3.2-.6 78.2-13.8 104.1 7.2l-2.7 3.9zm0 10.7c-24.2-19.8-99.7-6.5-100.6-6.3l-.8-4.8c3.2-.6 78.2-13.8 104.1 7.2l-2.7 3.9zm0 10.7c-24.2-19.8-99.7-6.5-100.6-6.3l-.8-4.8c3.2-.6 78.2-13.8 104.1 7.2l-2.7 3.9zm0 10.5c-24.2-19.8-99.7-6.5-100.6-6.3l-.8-4.8c3.2-.6 78.2-13.8 104.1 7.2l-2.7 3.9zm0 10.6c-24.2-19.8-99.7-6.5-100.6-6.3l-.8-4.8c3.2-.6 78.2-13.8 104.1 7.2l-2.7 3.9zm0 10.7c-24.2-19.8-99.7-6.5-100.6-6.3l-.8-4.8c3.2-.6 78.2-13.8 104.1 7.2l-2.7 3.9zm0 10.7c-24.2-19.8-99.7-6.5-100.6-6.3l-.8-4.8c3.2-.6 78.2-13.8 104.1 7.2l-2.7 3.9zm0 10.6c-24.2-19.8-99.7-6.5-100.6-6.3l-.8-4.8c3.2-.6 78.2-13.8 104.1 7.2l-2.7 3.9zm0 10.5c-24.2-19.8-99.7-6.5-100.6-6.3l-.8-4.8c3.2-.6 78.2-13.8 104.1 7.2l-2.7 3.9zm0 10.7c-24.2-19.8-99.7-6.5-100.6-6.3l-.8-4.8c3.2-.6 78.2-13.8 104.1 7.2l-2.7 3.9zm26.8-116.8c24.2-19.8 99.7-6.5 100.6-6.3l.8-4.8c-3.2-.6-78.2-13.8-104.1 7.2l2.7 3.9zm0 10.5c24.2-19.8 99.7-6.5 100.6-6.3l.8-4.8c-3.2-.6-78.2-13.8-104.1 7.2l2.7 3.9zm0 10.6c24.2-19.8 99.7-6.5 100.6-6.3l.8-4.8c-3.2-.6-78.2-13.8-104.1 7.2l2.7 3.9zm0 10.7c24.2-19.8 99.7-6.5 100.6-6.3l.8-4.8c-3.2-.6-78.2-13.8-104.1 7.2l2.7 3.9zm0 10.7c24.2-19.8 99.7-6.5 100.6-6.3l.8-4.8c-3.2-.6-78.2-13.8-104.1 7.2l2.7 3.9zm0 10.5c24.2-19.8 99.7-6.5 100.6-6.3l.8-4.8c-3.2-.6-78.2-13.8-104.1 7.2l2.7 3.9zm0 10.6c24.2-19.8 99.7-6.5 100.6-6.3l.8-4.8c-3.2-.6-78.2-13.8-104.1 7.2l2.7 3.9zm0 10.7c24.2-19.8 99.7-6.5 100.6-6.3l.8-4.8c-3.2-.6-78.2-13.8-104.1 7.2l2.7 3.9zm0 10.7c24.2-19.8 99.7-6.5 100.6-6.3l.8-4.8c-3.2-.6-78.2-13.8-104.1 7.2l2.7 3.9zm0 10.6c24.2-19.8 99.7-6.5 100.6-6.3l.8-4.8c-3.2-.6-78.2-13.8-104.1 7.2l2.7 3.9zm0 10.5c24.2-19.8 99.7-6.5 100.6-6.3l.8-4.8c-3.2-.6-78.2-13.8-104.1 7.2l2.7 3.9zm0 10.7c24.2-19.8 99.7-6.5 100.6-6.3l.8-4.8c-3.2-.6-78.2-13.8-104.1 7.2l2.7 3.9z"/></svg>

<svg xmlns="http://www.w3.org/2000/svg" viewBox="0 114 612 526" enable-background="new 0 114 612 526"><g stroke="#FDD900" stroke-width="2" stroke-miterlimit="10" fill="none"><path d="M358.9 551.6h2.4l-2-1.2M355.5 548.1l-11.1-6.9-76.1-13.5c-14.4-3-16.8-13.7-17.1-20.7M251 505v-2.3h-.2v-2.3M250.9 496v-192.5M250.9 301.3v-2.3h-2.3M244.7 299h-13.3M229.4 299h-2.2v2.3M227.2 305.6v138.4M227.2 446.3v2.3l-.2-2.3M226.7 441.8l-7.5-110.5c-.2-9.3-7.4-16.8-16.4-16.8h-127.3c-8.9 0-16.2 7.5-16.4 16.8l-7.1 104.5M52 437.9l-.3 2.2h-2.3M44.9 440.1h-15c-3.3 0-6 4.2-6 9.5 0 0-.2 119.7-.2 122.1 0 27.3 22.2 49.7 49.7 49.7 24.8 0 45.3-18.3 49.1-42M122.7 577.2c.2-.8.2-1.5.2-2.3h2.3M129.4 575h40.6M172.1 575h2.3l.2 2.3M175.2 581.7c4.7 22.7 24.6 39.8 48.6 39.8 27.3 0 49.7-22.2 49.7-49.7 0-5.6-.9-11-2.7-16.1M270.1 553.7c-.3-.8-.6-1.4-.9-2.1h2.3M276.1 551.6h80.5"/><path d="M90.7 575c-1.5 8.3-8.7 14.6-17.4 14.6-8.9 0-16.2-6.6-17.6-15.2-.2-.9-.2-1.7-.2-2.6v-1.1c.3-4.2 2-8 4.7-11 3.3-3.5 7.8-5.7 12.9-5.7 5.1 0 9.8 2.3 12.9 5.7 2.7 2.9 4.4 6.8 4.7 11v1.1c.3 1.1.1 2.1 0 3.2zM69.1 440.1h-2.3l.3-2.2M67.4 433.4l6.9-101.4v-.5c0-1.2.8-2 1.2-2h127.3c.5 0 1.2.8 1.2 2v.3l8.4 122.8M212.6 456.8l.2 2.3-1.8-1.5M207.5 454.7l-12.2-10.2M193.5 443l-1.6-1.4 1.3-1.8M196.1 436.5l5.9-7.1c2.3-2.7 2-6.9-.8-9.2-2.7-2.3-6.9-2-9.2.8l-26.1 31.1c-2.3 2.7-2 6.8.8 9.2 2.7 2.3 6.9 2 9.2-.8l7.4-8.7M184.5 450.4l1.5-1.8 1.7 1.5M191.4 453.1l13 10.8M206.2 465.4l1.8 1.5h-2.3M201 466.9h-57.6l-57.5-26.8h-14.4"/><path d="M223.9 589.5c-8.7 0-15.9-6.3-17.4-14.6-.2-1.1-.3-2.1-.3-3.2v-1.1c.3-4.2 2-8 4.7-11 2.3-2.4 5.1-4.2 8.3-5.1 1.5-.5 3-.6 4.7-.6 1.4 0 2.6.2 3.8.5 2.6.6 5 1.7 6.9 3.2 1.5 1.2 2.9 2.6 3.9 4.1 1.8 2.6 2.9 5.6 3 8.9v1.2c.1 9.8-7.9 17.7-17.6 17.7z"/></g><path fill="#00FFCE" d="M524.5 223.3c-8.4-.6-17.6-1.1-26.6-1.1-33.6 0-55 6.2-63.4 18.2-8.4-12-29.7-18.2-63.4-18.2-9 0-18.2.5-26.6 1.1h-1.2c-.6.2-1.4.2-2.1.2h-.3c-.8.2-1.5.2-2.3.2h-.8c-.5.2-.9.2-1.4.2-.5.2-1.1.2-1.7.2-17.1 1.7-29.6 3.9-29.7 3.9l-1.1.2-3 3.8h-22.7v199l3.2-.2c.5 0 51.7-3.3 71.8-5.4l.9-.2c20.3-2.3 45.5-5.1 56.3 3.8l.8.6h45.8l.8-.6c11-8.9 37.7-5.9 57.1-3.6h.2c20.1 2.3 71.3 5.4 71.8 5.4l3.2.2v-199h-22.7l-3-3.8-1.1-.2c-.2 0-12.6-2.3-29.7-3.9m-237.4 23.7l7.4-9.2v154.8l-7.4 12.3v-157.9zm130.2 164.1c-1.8-.6-21.6-7.1-49.8-7.1-9.2 0-18.3.8-27.2 2.1-29 4.5-44.3 5.4-51.5 5.6l9.2-15.3c.2 0 15.9-6.9 68.2-7.1 33.6-.2 47.9 13.7 53.6 22.5l-2.5-.7zm5.3-3.6c-7.1-9.8-22.7-23-56.2-23h-.3c-40.7.2-59.8 4.2-66.8 6.3v-158.1c7.4-1.2 35.3-5.4 62.9-5.4 34.7 0 55.6 6.6 60.4 19.2v161zm5.8-161.1c4.8-12.5 25.7-19.2 60.4-19.2 27.6 0 55.6 4.2 62.9 5.4v158.1c-7.2-2.1-26.3-6-66.5-6.3h-1.1c-33.9 0-49.1 12.8-55.7 22.5v-160.5zm82.5 159.8c-8.9-1.4-18-2.1-27.2-2.1-28.2 0-48 6.5-49.8 7.1l-2.6.8c5.3-8.9 19.1-22.8 54.1-22.5 48.2.3 65.5 6.2 67.9 7.1l9.2 15.3c-7.3-.3-22.7-1.2-51.6-5.7zm53-1.2l-7.4-12.3v-154.9l7.4 9.2v158zm-151.5-143.1c-24.2-19.8-99.7-6.5-100.6-6.3l-.8-4.8c3.2-.6 78.2-13.8 104.1 7.2l-2.7 3.9zm0 10.5c-24.2-19.8-99.7-6.5-100.6-6.3l-.8-4.8c3.2-.6 78.2-13.8 104.1 7.2l-2.7 3.9zm0 10.6c-24.2-19.8-99.7-6.5-100.6-6.3l-.8-4.8c3.2-.6 78.2-13.8 104.1 7.2l-2.7 3.9zm0 10.7c-24.2-19.8-99.7-6.5-100.6-6.3l-.8-4.8c3.2-.6 78.2-13.8 104.1 7.2l-2.7 3.9zm0 10.7c-24.2-19.8-99.7-6.5-100.6-6.3l-.8-4.8c3.2-.6 78.2-13.8 104.1 7.2l-2.7 3.9zm0 10.5c-24.2-19.8-99.7-6.5-100.6-6.3l-.8-4.8c3.2-.6 78.2-13.8 104.1 7.2l-2.7 3.9zm0 10.6c-24.2-19.8-99.7-6.5-100.6-6.3l-.8-4.8c3.2-.6 78.2-13.8 104.1 7.2l-2.7 3.9zm0 10.7c-24.2-19.8-99.7-6.5-100.6-6.3l-.8-4.8c3.2-.6 78.2-13.8 104.1 7.2l-2.7 3.9zm0 10.7c-24.2-19.8-99.7-6.5-100.6-6.3l-.8-4.8c3.2-.6 78.2-13.8 104.1 7.2l-2.7 3.9zm0 10.6c-24.2-19.8-99.7-6.5-100.6-6.3l-.8-4.8c3.2-.6 78.2-13.8 104.1 7.2l-2.7 3.9zm0 10.5c-24.2-19.8-99.7-6.5-100.6-6.3l-.8-4.8c3.2-.6 78.2-13.8 104.1 7.2l-2.7 3.9zm0 10.7c-24.2-19.8-99.7-6.5-100.6-6.3l-.8-4.8c3.2-.6 78.2-13.8 104.1 7.2l-2.7 3.9zm26.8-116.8c24.2-19.8 99.7-6.5 100.6-6.3l.8-4.8c-3.2-.6-78.2-13.8-104.1 7.2l2.7 3.9zm0 10.5c24.2-19.8 99.7-6.5 100.6-6.3l.8-4.8c-3.2-.6-78.2-13.8-104.1 7.2l2.7 3.9zm0 10.6c24.2-19.8 99.7-6.5 100.6-6.3l.8-4.8c-3.2-.6-78.2-13.8-104.1 7.2l2.7 3.9zm0 10.7c24.2-19.8 99.7-6.5 100.6-6.3l.8-4.8c-3.2-.6-78.2-13.8-104.1 7.2l2.7 3.9zm0 10.7c24.2-19.8 99.7-6.5 100.6-6.3l.8-4.8c-3.2-.6-78.2-13.8-104.1 7.2l2.7 3.9zm0 10.5c24.2-19.8 99.7-6.5 100.6-6.3l.8-4.8c-3.2-.6-78.2-13.8-104.1 7.2l2.7 3.9zm0 10.6c24.2-19.8 99.7-6.5 100.6-6.3l.8-4.8c-3.2-.6-78.2-13.8-104.1 7.2l2.7 3.9zm0 10.7c24.2-19.8 99.7-6.5 100.6-6.3l.8-4.8c-3.2-.6-78.2-13.8-104.1 7.2l2.7 3.9zm0 10.7c24.2-19.8 99.7-6.5 100.6-6.3l.8-4.8c-3.2-.6-78.2-13.8-104.1 7.2l2.7 3.9zm0 10.6c24.2-19.8 99.7-6.5 100.6-6.3l.8-4.8c-3.2-.6-78.2-13.8-104.1 7.2l2.7 3.9zm0 10.5c24.2-19.8 99.7-6.5 100.6-6.3l.8-4.8c-3.2-.6-78.2-13.8-104.1 7.2l2.7 3.9zm0 10.7c24.2-19.8 99.7-6.5 100.6-6.3l.8-4.8c-3.2-.6-78.2-13.8-104.1 7.2l2.7 3.9z"/></svg>
